!!!!SEGMENT: pl-sa--20-a-i-20--001_anonim--polonez.krn
!!!cenid: 18xx:649
!!!COM: Anonim
!!!COM-rismID: pe30004985
!!!CDT:
!!!CNT:
!!!OTL: Polonez
!!!PDT:
!!!AGN: Secular; Polonaise
!!!YEC: Copyright 2022 Narodowy Instytut Fryderyka Chopina (https://polishscores.org)
!!!YEM: License CC-BY-4.0 (https://creativecommons.org/licenses/by/4.0)
!!!SMS-siglum: PL-SA
!!!SMS-shelfmark: 20/A I 20
!!!SMS-shelfwork: 001 W
!!!SMS-variant:
!!!SMS-altvar:
!!!NIFC-rismSourceID: 1001065410
!!!NIFC-rismChildID: 1001065410
!!!NIFC-islandoraID: none
!!!URL-pdf-islandora:
!!!URL-scan: https://bc.bdsandomierz.pl/dlibra/publication/1293/edition/1261/content @EN{Scan in the Sandomierz Diocese Digital Library} @PL{Skany w portalu Cyfrowa Biblioteka Diecezjalna w Sandomierzu}
!!!IIIF:
!!!ONB-nifc: Str. 2-3
!!!AIN: 1 empty 1 forte
!!!key:
**kern	**kern	**dynam
*part2	*part1	*
*staff2	*staff1	*
*Iempty	*Iforte	*
*	*I"Forte Piano	*
*	*I'pf	*
*clefF4	*clefG2	*
*k[b-e-]	*k[b-e-]	*
*g:	*g:	*
*M3/4	*M3/4	*
=1	=1	=1
!	!LO:TX:a:Bi:t=Polon&colon;	!LO:DY:rj:t=p.
4G 4GG/	16G/LL	p
.	16g/J	.
.	8g/J	.
8r	4.b-\	.
8B-L 8G\	.	.
8B- 8G\	.	.
8B-J 8G\	8dd\	.
=2	=2	=2
4B- 4G\	16cc#X\LL	.
.	16dd\	.
.	16a\	.
.	16b-\JJ	.
4G 4GG\	4g/	.
*	*Xtuplet	*
4r	36g\LLL	.
.	36a\	.
.	36b-\	.
.	36ccn\	.
.	36dd\	.
.	36ee-\	.
.	36ff\	.
.	36gg\	.
.	36aa\JJJ	.
=3	=3	=3
4G 4GG/	4.bb-\	.
8r	.	.
8G\L	16aa\LL	.
.	16gg\JJ	.
8B-\	32ff#X\LLL	.
.	32gg\J	.
.	16dd\JJ	.
8G\J	16ee-\LL	.
.	16dd\JJ	.
=4	=4	=4
4F 4D\	16dd\LL	.
.	16cc\	.
.	16bn\	.
.	16cc\JJ	.
8r	4cc\	.
8DL 8DD/	.	.
8F#X 8FF#X/	4r	.
8AJ 8AA/	.	.
!LO:LB:g=original	!LO:LB:g=original	!
=5	=5	=5
4F#X 4D\	16d/LL	.
.	16f/J	.
.	8f/J	.
4D\	4a/	.
4r	16a\LL	.
.	32bn\L	.
.	32cc#X\	.
.	32dd\	.
.	32ee-\	.
.	32ff#X\	.
.	32gg\JJJ	.
=6	=6	=6
4D/	4aa 4ff#X\	.
*	*tuplet	*
!	!LO:TUP:a:problem=klamra łukowa, falka zamiast numeru	!
8r	12aa\L	.
.	12gg\	.
8F#X\	.	.
.	12gg#X\J	.
!	!LO:TUP:a:problem=klamra łukowa, falka zamiast numeru	!
8r	12ee-L 12cc\	.
.	12dd 12b-\	.
8D\	.	.
.	12ccJ 12a\	.
=7	=7	=7
4F#X 4D\	16ccLL 16a\	.
.	16dd\	.
.	16a\	.
.	16b-\JJ	.
8r	4b- 4g\	.
8GG/L	.	.
8BB-/	4r	.
8D/J	.	.
=8	=8	=8
4GG/	8.g/L	.
.	16fJk 16d/	.
4BB-/	8.b-/L	.
.	16g/Jk	.
4E-/	8.ee-\L	.
.	16cc#X\Jk	.
=9	=9	=9
4D 4DD/	8.dd\L	.
.	16cc\Jk	.
8r	16dd/LL	.
.	16a/	.
8AA/	16f#X/	.
.	16a/JJ	.
4DD/	4d/	.
!LO:TX:a:t=[segno]:na kresce taktowej	!LO:TX:a:t=[segno]:na kresce taktowej	!
!LO:LB:g=original	!LO:LB:g=original	!
=10||	=10||	=10||
*clefG2	*	*
!	!LO:TUP:a:problem=klamra łukowa, falka zamiast numeru	!
16d/LL	24dd\LL	.
.	24ff#X\	.
16a/	.	.
.	24aa\JJ	.
16f/	4ddd\	.
16a/JJ	.	.
*rep	*	*
16d/LL	.	.
16a/	.	.
!	!LO:TUP:a:problem=klamra łukowa, falka zamiast numeru	!
16f/	24dd\LL	.
.	24ee-\	.
16a/JJ	.	.
*Xrep	*	*
.	24dd\JJ	.
*rep	*	*
16d/LL	16cc\LL	.
16a/	16cc\	.
16f/	16dd\	.
16a/JJ	16cc\JJ	.
*Xrep	*	*
=11	=11	=11
16d/LL	16dd\LL	.
16b-/	16b-\	.
16g/	16a\	.
16b-/JJ	16g\JJ	.
*rep	*	*
16d/LL	16g\LL	.
!	!LO:TX::a:t=P:problem=klamra łukowa, falka zamiast numeru, a to nie jest triola	!
16b-/	16bb-\	.
16g/	16aa\	.
16b-/JJ	16gg\JJ	.
*Xrep	*	*
*rep	*	*
16d/LL	16dd\LL	.
16b-/	16ddd\	.
16g/	16bb-\	.
16b-/JJ	16gg\JJ	.
*Xrep	*	*
*clefF4	*	*
=12:|!	=12:|!	=12:|!
!LO:TX:a:t=P:problem=nieoznaczona zmiana klucza	!	!
4c 4C\	16ee-\LL	.
.	16ee-w\	.
.	16ff\	.
.	16ee-\JJ	.
4A\	16ccc\LL	.
.	16ee-\	.
.	16ff\	.
.	16ee-\JJ	.
8c\L	16eee-\LL	.
.	16ee-\	.
8B-\J	16ff\	.
.	16ee-\JJ	.
=13	=13	=13
4B- 4BB-\	16dd\LL	.
.	16ddW\	.
.	16ee-\	.
.	16dd\JJ	.
4G\	16bb-\LL	.
.	16dd\	.
.	16ee-\	.
.	16dd\JJ	.
8B-\L	16ddd\LL	.
.	16dd\	.
8G\J	16ee-\	.
.	16dd\JJ	.
!LO:LB:g=original	!LO:LB:g=original	!
=14	=14	=14
4F#X\	16cc\LL	.
.	16ccW\	.
.	16ee-\	.
.	16cc\JJ	.
!LO:SIC:s=4FF#:v	!	!
4FF/	16ccc\LL	.
.	16aa\	.
.	16ff#X\	.
.	16gg\JJ	.
8DL 8DD/	16aa\LL	.
.	16ff#\	.
8F#XJ 8FF#X/	16dd\	.
.	16cc\JJ	.
=15	=15	=15
!LO:TX:t=P:problem=mixed beam	!	!
8G\L	16b-/LL	.
.	16a/	.
8BB-/	16dd/	.
.	16f#X/JJ	.
.	8qqf#/	.
8C/	2g/	.
8E-/J	.	.
4GG/	.	.
=16||;	=16||;	=16||
8B- 8F 8D\	4.bb- 4.ff 4.dd\	.
32BB-/LLL	.	.
32AA/	.	.
32BB-/	.	.
32AA/JJJ	.	.
*rep	*	*
32BB-/LLL	.	.
32AA/	.	.
32BB-/	.	.
32AA/JJJ	.	.
*Xrep	*	*
*rep	*	*
32BB-/LLL	16a\LL	.
32AA/	.	.
32BB-/	16b-\JJ	.
32AA/JJJ	.	.
*Xrep	*	*
4BB-/	16cc\LL	.
.	16b-\	.
.	16ee-\	.
.	16dd\JJ	.
=17	=17	=17
8B- 8F 8D\	16cc#X\LL	.
.	16dd\JJ	.
32BB-/LLL	4bb- 4ff 4dd\	.
32AA/	.	.
32BB-/	.	.
32AA/JJJ	.	.
*rep	*	*
32BB-/LLL	.	.
32AA/	.	.
32BB-/	.	.
32AA/JJJ	.	.
*Xrep	*	*
*rep	*	*
32BB-/LLL	16cc#X\LL	.
32AA/	.	.
32BB-/	16dd\JJ	.
32AA/JJJ	.	.
*Xrep	*	*
4BB-/	16ee-LL 16cc#\	.
.	16dd 16b-\	.
.	16gg 16ee-\	.
.	16ffJJ 16dd\	.
=18	=18	=18
4B-\	16een\LL	.
.	16ff\J	.
!	!LO:N:vis=8.	!
.	8ff\J	.
!	!LO:N:vis=16	!
4BB-/	8ggL 8ee\	.
!	!LO:N:vis=16	!
.	8aaJ 8ff\	.
4B-\	16bb-\LL	.
.	16aa\	.
.	16gg\	.
.	16ff\JJ	.
!LO:PB:g=original	!LO:PB:g=original	!
=19	=19	=19
4F\	16ff\LL	.
.	16ee- 16cc\	.
.	16dd 16b-\	.
.	16ee-JJ 16cc\	.
8r	4ee- 4cc\	.
8F\L	.	.
8A\	4r	.
8c\J	.	.
=20	=20	=20
4F\	16ee-\LL	.
.	16ee-\J	.
.	8ee-\J	.
4FF/	16ee-\LL	.
*	*Xtuplet	*
.	112%3cc\L	.
.	112%3dd\	.
.	112%3ee-\	.
.	112%3ff\	.
.	112%3gg\	.
.	112%3aa\	.
.	112%3bb-\JJJ	.
*	*tuplet	*
!	!LO:TUP:a:problem=klamra łukowa, falka zamiast numeru	!
4A 4F\	24ccc\LL	.
.	24bb-\	.
.	24aa\JJ	.
!	!LO:TUP:a:problem=klamra łukowa, falka zamiast numeru	!
.	24gg\LL	.
.	24ff\	.
.	24ee-\JJ	.
=21	=21	=21
4B-\	16ee-LL 16cc\	.
.	16dd 16b-\	.
.	16cc 16a\	.
.	16ddJJ 16b-\	.
8r	4dd 4b-\	.
8BB-/L	.	.
8D/	4r	.
8G/J	.	.
=22	=22	=22
!	!LO:TUP:a:problem=klamra łukowa, kropka zamiast numeru	!
!	!LO:TX:t=P:problem=mixed beam	!
4Fn\	24fn/LL	.
.	24ee-\	.
.	24dd\JJ	.
!	!LO:TUP:a:problem=klamra łukowa, falka zamiast numeru	!
.	24cc\LL	.
.	24ccc\	.
.	24bb-\JJ	.
!	!LO:TUP:a:problem=klamra łukowa, kropka zamiast numeru	!
4D\	24aa\LL	.
.	24eee-\	.
.	24ddd\JJ	.
!	!LO:TUP:a:problem=klamra łukowa, kropka zamiast numeru	!
.	24ccc\LL	.
.	24bb-\	.
.	24aa\JJ	.
!	!LO:TUP:a:problem=klamra łukowa, kropka zamiast numeru	!
4E-\	24gg\LL	.
.	24ff\	.
.	24ee-\JJ	.
!	!LO:TUP:a:problem=klamra łukowa, kropka zamiast numeru	!
.	24ff\LL	.
.	24gg\	.
.	24ee-\JJ	.
=23	=23	=23
4D\	16ee-\LL	.
.	16dd 16b-\	.
.	16ee-\	.
.	16a\JJ	.
.	8qqcc/	.
4E-\	2b- 2d/	.
16D/LL	.	.
16C/	.	.
16BB-/	.	.
!LO:TX:a:i:t=al Segno	!	!
16AA/JJ	.	.
!LO:TX:a:t=[segno]:na kresce taktowej	!LO:TX:a:t=[segno]:na kresce taktowej	!
!LO:LB:g=original	!LO:LB:g=original	!
=24||	=24||	=24||
*k[b-e-]	*k[b-e-]	*
!LO:TX:a:B:t=Trio	!	!
!LO:TX:t=P:problem=mixed beam	!	!
8GG/L	8G/L	.
8G\J	8g/J	.
8r	8.b-\L	.
8G 8E-\	.	.
.	16dd\Jk	.
8GL 8E-\	16r	.
.	16dd\LL	.
8GJ 8E-\	16ee-\	.
.	16cc#X\JJ	.
=25	=25	=25
*	*2\right	*
!LO:TX:t=P:problem=mixed beam	!	!
8G\L	2dd 2b-\	.
8GG/	.	.
8BB-/	.	.
8D/J	.	.
4G\	8b-L 8g/	.
.	8ccJ 8a/	.
=26	=26	=26
4G\	8ddL 8b-\	.
.	8ddJ 8b-\	.
4GG/	16dd\LL	.
.	16gg\	.
.	16ff#X\	.
.	16gg\JJ	.
4r	16aa\LL	.
.	16gg\	.
.	16ff#\	.
.	16gg\JJ	.
=27	=27	=27
4F 4D\	4ee- 4cc\	.
4.G\	4.dd 4.b-\	.
8GG/	8b- 8g\	.
=28	=28	=28
4D\	8a 8f#X/	.
.	4a 4f#/	.
4DD/	.	.
.	8aL 8f#/	.
4D\	8b- 8g/	.
.	8ccJ 8a/	.
=29	=29	=29
4G\	8dd 8b-\	.
.	4dd 4b-\	.
4GG/	.	.
.	8ddL 8b-\	.
4D\	8cc 8a\	.
.	8b-J 8g\	.
=30	=30	=30
4F#X 4D\	4.ee- 4.cc\	.
8r	.	.
8D\	8cc 8a\	.
4d\	8aL 8fn/	.
.	8ccJ 8a/	.
!LO:LB:g=original	!LO:LB:g=original	!
=31	=31	=31
4G\	8g/L	.
.	8f#X/J	.
4GG/	16g/LL	.
.	16d/	.
.	16B-/	.
.	16d/JJ	.
4G\	16g\LL	.
.	16b-\	.
.	16dd\	.
.	16b-\JJ	.
=32	=32	=32
!LO:TX:t=P:problem=mixed beam	!	!
8D/L	8a 8f/	.
8d\	4a 4f/	.
8d\	.	.
8d\J	8aL 8f/	.
4D/	8b- 8g/	.
.	8ccJ 8a/	.
=33	=33	=33
!LO:TX:t=P:problem=mixed beam	!	!
8GG/L	8dd 8b-\	.
8G\	4dd 4b-\	.
8G\	.	.
8G\J	8ddL 8b-\	.
4D\	8cc 8a\	.
.	8b-J 8g\	.
=34	=34	=34
4.F\	4.ee- 4.cc#X\	.
8D\	8b-\	.
!	!LO:TX:t=P:problem=mixed beam	!
8F\L	8dd\L	.
8D\J	8f/J	.
=35	=35	=35
4G\	16g/LL	.
.	16d/	.
.	16b-/	.
.	16a/JJ	.
.	8qqa/	.
8r	2g/	.
8D\	.	.
4GG/	.	.
=36||;	=36||;	=36||
16B-\LL	4b- 4f 4d/	.
16f\	.	.
16d\	.	.
16f\JJ	.	.
*rep	*Xtuplet	*
16B-\LL	16b-\LL	.
16f\	112%3cc\L	.
.	112%3dd\	.
.	112%3ee-\	.
16d\	.	.
.	112%3ff\	.
.	112%3gg\	.
16f\JJ	.	.
*Xrep	*	*
.	112%3aa\	.
.	112%3bb-\JJJ	.
*rep	*	*
16B-\LL	8bb-\L	.
16f\	.	.
16d\	8ddd\J	.
16f\JJ	.	.
*Xrep	*	*
=37	=37	=37
16AA/LL	8ccc\L	.
16F/	.	.
16C/	8ccc\J	.
16F/JJ	.	.
*rep	*	*
16AA/LL	4.ccc\	.
16F/	.	.
16C/	.	.
16F/JJ	.	.
*Xrep	*	*
*rep	*	*
16AA/LL	.	.
16F/	.	.
16C/	8aa 8ff\	.
16F/JJ	.	.
*Xrep	*	*
!LO:LB:g=original	!LO:LB:g=original	!
=38	=38	=38
16G\LL	8.ddd\L	.
16d\	.	.
16G\	.	.
16d\JJ	16ccc\Jk	.
*rep	*	*
16G\LL	16ddd\LL	.
16d\	16ccc\	.
16G\	16bb-\	.
16d\JJ	16aa\JJ	.
*Xrep	*	*
*rep	*	*
16G\LL	8ggL 8b-\	.
16d\	.	.
16G\	8ggJ 8b-\	.
16d\JJ	.	.
*Xrep	*	*
=39	=39	=39
16D\LL	8ff#XL 8dd\	.
16A\	.	.
16F#X\	8ff#J 8dd\	.
16A\JJ	.	.
*rep	*	*
16D\LL	4.ff# 4.dd\	.
16A\	.	.
16F#\	.	.
16A\JJ	.	.
*Xrep	*	*
*rep	*	*
16D\LL	.	.
16A\	.	.
16F#\	8dd\	.
16A\JJ	.	.
*Xrep	*	*
=40	=40	=40
16G\LL	4gg 4dd 4b-\	.
16d\	.	.
16B-\	.	.
16d\JJ	.	.
*rep	*	*
16G\LL	16gg\LL	.
16d\	16ff#X\	.
16B-\	16gg\	.
16d\JJ	16aa\JJ	.
*Xrep	*	*
*rep	*	*
16G\LL	16bb-\LL	.
16d\	16gg\	.
16B-\	16aa\	.
16d\JJ	16ff#X\JJ	.
*Xrep	*	*
=41	=41	=41
4B- 4G 4E-\	16gg\LL	.
.	16ff#X\	.
.	16gg\	.
.	16ee-\JJ	.
4B- 4G\	16dd\LL	.
.	16ee- 16cc\	.
.	16dd\	.
.	16ee-\JJ	.
4F#X 4D\	16dd\LL	.
.	16cc\	.
.	16b-\	.
!LO:TX:a:i:t=Trio Da Capo	!	!
.	16a\JJ	.
==;	==;	==
*-	*-	*-
!!!system-decoration: [s1,s2]
!!!RDF**kern: > = above
!!!RDF**kern: < = below
!!!ENC: Marta Lawrence
!!!END: 2020-10-11
!!!ENC: Marta Chmielewska
!!!END: 2020-06-18
